src/icons/SVG/64px/Navigation_Arrow_Down_64px.svg

<svg width="64" height="64" viewBox="0 0 64 64" fill="none" xmlns="http://www.w3.org/2000/svg">
  <g id="Square"> </g>
  <g id="Icon">
<path id="Vector" d="M33.5 6.5C33.5 5.67157 32.8284 5 32 5C31.1716 5 30.5 5.67157 30.5 6.5H33.5ZM32 57.5L30.9393 58.5607C31.5251 59.1464 32.4749 59.1464 33.0607 58.5607L32 57.5ZM50.5607 41.0607C51.1464 40.4749 51.1464 39.5251 50.5607 38.9393C49.9749 38.3536 49.0251 38.3536 48.4393 38.9393L50.5607 41.0607ZM15.5607 38.9393C14.9749 38.3536 14.0251 38.3536 13.4393 38.9393C12.8536 39.5251 12.8536 40.4749 13.4393 41.0607L15.5607 38.9393ZM30.5 6.5V57.5H33.5V6.5H30.5ZM33.0607 58.5607L50.5607 41.0607L48.4393 38.9393L30.9393 56.4393L33.0607 58.5607ZM33.0607 56.4393L15.5607 38.9393L13.4393 41.0607L30.9393 58.5607L33.0607 56.4393Z" fill="black"/>
</g>
</svg>

<svg xmlns="http://www.w3.org/2000/svg" viewBox="0 0 64 64">
  <g id="Square"> </g>
  <path d="M33.5 6.5a1.5 1.5 0 00-3 0h3zm-1.5 51l-1.06 1.06a1.5 1.5 0 002.12 0L32 57.5zm18.56-16.44a1.5 1.5 0 00-2.12-2.12l2.12 2.12zm-35-2.12a1.5 1.5 0 00-2.12 2.12l2.12-2.12zM30.5 6.5v51h3v-51h-3zm2.56 52.06l17.5-17.5-2.12-2.12-17.5 17.5 2.12 2.12zm0-2.12l-17.5-17.5-2.12 2.12 17.5 17.5 2.12-2.12z"/>
</svg>
